X:53
T:Bonnets of Blue. WHG.052
R:jig
S:W.H.Giles MS,Bampton,Oxfordshire,1839p54
O:England
H:donated by Mrs W.R.Kettlewell to VWML,Apr 1927.
A:Bampton, Oxfordshire
N:Penultimate note is B2 in the MS.
Z:PJHeadford – VMP 2009
M:6/8
L:1/8
Q:3/8=120
K:D
A|ded fga|A3 ABc|d2b afd|e3 e2d/e/|
fef def|gab a2g|fed ABc|d3 d2:|
d|cde efe|A3 A2e/d/|cde efg|a3 a2g|
f2e d2c|B2c d2e|fbf edc|B3 B2″ DC”|]

